X: 261
T:Pad The Road,Sir. JaW.260
M:C
Q:150
S:James Winder Ms, Lancashire, 1835-41
R:Air
O:England
A:Wyresdale,Lancashire
H:1/8
Z:vmp.Chris Partington, Aug 2004
K:C
c3c|c3c c2c2|f2d2c2d2|B2G4d2|e2ed efg2|c2g2f2d2|B2c2d4||!
d2e2 edef|g2e2c2g2|f2d2B2G2|e4 def(g|d)(ec)B AG F2|G2G2A2B2c4|]
